X:1106
T:Bandersnatch
% Nottingham Music Database
S:via PR
M:4/4
L:1/4
K:G
d/2c/2|"G"Bd GB|"D"AF D2|"G"BG dB|"D"A2 d2|"G"gd B3/2d/2|"Am"ec A3/2G/2|\
"D7"FA DF|"G"G3:|
"D7"DE/2F/2 "G"GG|"Em"EF/2G/2 "Am"AA|"F#m"FG/2A/2 "Bm"BB|"Em"GF "A7"E2|\
"D7"DE/2F/2 "G"GG|"Em"EF/2G/2 "A7"Ad|"D7"d/2e/2d/2c/2 BA|"G"G4::
"D"dd d/2A/2F/2d/2|"C"cc c/2G/2E/2c/2|"Bb"_BB B/2=F/2D/2B/2|"A"A4|\
"D"dd d^c/2d/2|"Am"e=c AG|"D7"FA d/2e/2f|"G"g4:|
